X: 75
T: Rattle Trap
C:trad. US
B: canberra pickers and fiddlers
B: old time tunes update
B: tunes
M:C|
L:1/8
R: march, reel
Q: 1/4=100
K:Gmixolydian
V:1 
|: "G"d2d2 B3d | "C"e2 c6    | "G"d2d2 B3B  | A2 G6 \
|  "G"d2d2 B3c | "C"e2 c4 ef | "G"g2e2 d2B2 | A2G2 G2z2 :|
|: "G"G2G2  D2D2 | "C"C2C2 "Db"_D2D2 | "C"C2C2 "Db"_D2D2 | "C"C2C2 "Db"_D2D2 \
|  "G"G2G2 =D2D2 | "C"C2C2 "Db"_D2D2 | "C"C2C2 "Db"_D2D2 | "C"E2E2 "(D)"=D2D2 :|
% abcbook-tune_id 67a7d9ecd0616fdcb9300ec4
% abcbook-tune_composer_id 
% abcbook-link-0 https://www.youtube.com/watch?v=9YW1MoCoi3Y
% abcbook-link-title-0 Rattletrap
% abcbook-link-1 https://www.youtube.com/watch?v=i4ABmsgrjZY
% abcbook-link-title-1 Rattletrap
% abcbook-boost 0
% abcbook-difficulty 0
% abcbook-tags old time tunes
% abcbook-tablature 
% abcbook-transpose 
% abcbook-tuning AEAE
% abcbook-lastupdated 1739273437710
% abcbook-src-url 
% abcbook-soundfonts 
% abcbook-repeats 1


